X:183
T:Whatever you say, say nothing
Z:Jack Campin, http://www.campin.me.uk/
F:Jack Campin's Nine-Note Tunebook
% last edit 03-02-2013
C:Colum Sands
M:4/4
L:1/8
Q:1/4=130
K:F
 C|FF F2   F2G2|AA3    z2 AA|GG G2  F E3  |F4 z2
AA|A2 A A- A2B2|c2 F2- F2 z2|GG3   =B2 Bc-|c2 z4
c2|d2 cc   c2zA|GF3    F2 FF|FF F2- F2 G2 |A2 z4
AG|F2 F F- F2G2|A2 AA- AG F2|G2 G2  GF E2 |F4 z3|]


% == Irish dance tunes ======================================================

